public/icons/icon-facebook.svg

<svg viewBox="0 0 1024 1024" xmlns="http://www.w3.org/2000/svg"><g fill="#262626"><path d="m983.8 312.7a510.3 510.3 0 0 0 -109.8-162.7 510.3 510.3 0 0 0 -362-150 510.3 510.3 0 0 0 -362 150 510.3 510.3 0 0 0 -150 362 508.8 508.8 0 0 0 150 362 510.2 510.2 0 0 0 362 150 510.3 510.3 0 0 0 362-150 510.3 510.3 0 0 0 150-362c0-69-13.5-136.1-40.2-199.3zm-471.8 663.6c-124 0-240.7-48.3-328.3-136a461.3 461.3 0 0 1 -136-328.3c0-256 208.3-464.3 464.3-464.3 124 0 240.7 48.3 328.3 136a461.3 461.3 0 0 1 136 328.3c0 256-208.3 464.3-464.3 464.3z"/><path d="m672.8 305.6v-101.6h-100.3c-14.6.1-28.4.9-42.4 5.4-13.5 4.3-26.2 12-37 21-6.2 5.3-12 11-17.2 17.3a136.5 136.5 0 0 0 -22 42.3c-5.6 16.3-5.7 34.2-5.7 51.3v85.8h-97v112h96v281h111v-283.5l100.8 1.4 13.6-110.1-113.9-.3v-85s-.2-36.2 30.5-36.7l83.5-.3z"/></g></svg>

<svg xmlns="http://www.w3.org/2000/svg" xml:space="preserve" viewBox="0 0 1024 1024"><path fill="#262626" d="M983.8 312.7A510.3 510.3 0 0 0 874 150 510.3 510.3 0 0 0 512 0a510.3 510.3 0 0 0-362 150A510.3 510.3 0 0 0 0 512a508.8 508.8 0 0 0 150 362 510.2 510.2 0 0 0 362 150 510.3 510.3 0 0 0 362-150 510.3 510.3 0 0 0 150-362c0-69-13.5-136.1-40.2-199.3zM512 976.3c-124 0-240.7-48.3-328.3-136A461.3 461.3 0 0 1 47.7 512C47.7 256 256 47.7 512 47.7c124 0 240.7 48.3 328.3 136a461.3 461.3 0 0 1 136 328.3c0 256-208.3 464.3-464.3 464.3z"/><path fill="#262626" d="M672.8 305.6V204H572.5c-14.6.1-28.4.9-42.4 5.4-13.5 4.3-26.2 12-37 21-6.2 5.3-12 11-17.2 17.3a136.5 136.5 0 0 0-22 42.3c-5.6 16.3-5.7 34.2-5.7 51.3V427.1h-97v112h96v281h111V536.6L659 538l13.6-110.1-113.9-.3v-85s-.2-36.2 30.5-36.7l83.5-.3z"/></svg>
